kora/status/symbolic/security-high-symbolic.svg

<svg xmlns="http://www.w3.org/2000/svg" style="clip-rule:evenodd;fill-rule:evenodd;stroke-linejoin:round;stroke-miterlimit:2" version="1.1" viewBox="0 0 16 16">
 <defs>
  <style id="current-color-scheme" type="text/css">
   .ColorScheme-Text { color:#dfdfdf; } .ColorScheme-Highlight { color:#4285f4; } .ColorScheme-NeutralText { color:#ff9800; } .ColorScheme-PositiveText { color:#4caf50; } .ColorScheme-NegativeText { color:#f44336; }
  </style>
 </defs>
 <path style="fill-opacity:.3;fill:currentColor;" class="ColorScheme-Text" d="m8 0c-1.839 0.827-3.843 1.49-6 2 0 0 0.109 5.094 0.655 7 0.473 1.652 1.407 3.489 2.619 4.439 1.211 0.95 2.726 1.561 2.726 1.561s1.515-0.611 2.727-1.561c1.211-0.96 2.145-2.787 2.618-4.439 0.545-1.906 0.655-7 0.655-7-2.097-0.424-4.115-1.047-6-2z"/>
 <path style="fill:currentColor;" class="ColorScheme-Text" d="m8 0c-1.839 0.827-3.843 1.49-6 2 0 0 0.109 5.094 0.655 7 0.473 1.652 1.407 3.489 2.619 4.439 1.211 0.95 2.726 1.561 2.726 1.561s1.515-0.611 2.727-1.561c1.211-0.96 2.145-2.787 2.618-4.439 0.545-1.906 0.655-7 0.655-7-2.097-0.424-4.115-1.047-6-2zm-0.016 0.773c-1.635 0.712-3.393 1.302-5.269 1.773 0.043 1.352 0.191 4.786 0.613 6.261 0.433 1.514 1.267 3.211 2.378 4.081 0.838 0.657 1.831 1.141 2.294 1.349 0.463-0.208 1.456-0.691 2.292-1.347 1.111-0.88 1.947-2.568 2.38-4.083 0.42-1.468 0.569-4.879 0.612-6.243-1.842-0.408-3.62-0.977-5.3-1.791z"/>
</svg>

<svg style="clip-rule:evenodd;fill-rule:evenodd;stroke-linejoin:round;stroke-miterlimit:2" viewBox="0 0 16 16" xmlns="http://www.w3.org/2000/svg">
 <path d="M8,0C6.161,0.827 4.157,1.49 2,2C2,2 2.109,7.094 2.655,9C3.128,10.652 4.062,12.489 5.274,13.439C6.485,14.389 8,15 8,15C8,15 9.515,14.389 10.727,13.439C11.938,12.479 12.872,10.652 13.345,9C13.89,7.094 14,2 14,2C11.903,1.576 9.885,0.953 8,0Z" fill-opacity=".3" fill="#dfdfdf"/>
 <path d="m8 0c-1.839 0.827-3.843 1.49-6 2 0 0 0.109 5.094 0.655 7 0.473 1.652 1.407 3.489 2.619 4.439 1.211 0.95 2.726 1.561 2.726 1.561s1.515-0.611 2.727-1.561c1.211-0.96 2.145-2.787 2.618-4.439 0.545-1.906 0.655-7 0.655-7-2.097-0.424-4.115-1.047-6-2zm-0.016 0.773c-1.635 0.712-3.393 1.302-5.269 1.773 0.043 1.352 0.191 4.786 0.613 6.261 0.433 1.514 1.267 3.211 2.378 4.081 0.838 0.657 1.831 1.141 2.294 1.349 0.463-0.208 1.456-0.691 2.292-1.347 1.111-0.88 1.947-2.568 2.38-4.083 0.42-1.468 0.569-4.879 0.612-6.243-1.842-0.408-3.62-0.977-5.3-1.791z" fill="#dfdfdf"/>
</svg>
